app/assets/images/heroicons/mini/h3.svg

<svg width="20" height="20" viewBox="0 0 20 20" fill="none" xmlns="http://www.w3.org/2000/svg">
<path fill-rule="evenodd" clip-rule="evenodd" d="M2.75 4C3.16421 4 3.5 4.33579 3.5 4.75V9.25H8.5V4.75C8.5 4.33579 8.83579 4 9.25 4C9.66421 4 10 4.33579 10 4.75V15.25C10 15.6642 9.66421 16 9.25 16C8.83579 16 8.5 15.6642 8.5 15.25V10.75H3.5V15.25C3.5 15.6642 3.16421 16 2.75 16C2.33579 16 2 15.6642 2 15.25V4.75C2 4.33579 2.33579 4 2.75 4ZM15 9.5C14.27 9.5 13.5524 9.55124 12.8505 9.65021C12.4403 9.70805 12.061 9.42244 12.0031 9.01228C11.9453 8.60212 12.2309 8.22274 12.6411 8.16491C13.4121 8.05618 14.1997 8 15 8C15.3754 8 15.7479 8.01236 16.1173 8.0367C17.1015 8.10157 17.995 8.87442 17.9999 9.96896L17.9999 9.97064L18 10C18 10.6953 17.8946 11.3672 17.6986 12C17.8946 12.6328 18 13.3047 18 14L18 14.0017L17.9999 14.0294L17.9999 14.031C17.995 15.1256 17.1015 15.8984 16.1173 15.9633C15.7479 15.9876 15.3754 16 15 16C14.2028 16 13.4183 15.9443 12.6501 15.8364C12.2399 15.7788 11.9541 15.3995 12.0117 14.9893C12.0693 14.5792 12.4485 14.2933 12.8587 14.3509C13.558 14.4492 14.2729 14.5 15 14.5C15.3424 14.5 15.6821 14.4887 16.0187 14.4665C16.327 14.4462 16.4987 14.2258 16.4999 14.0249V14.0249L16.5 14C16.5 13.5686 16.4481 13.1501 16.3505 12.75H13.7497C13.3355 12.75 12.9997 12.4142 12.9997 12C12.9997 11.5858 13.3355 11.25 13.7497 11.25H16.3505C16.4481 10.8502 16.4999 10.432 16.5 10.0008V10.0008L16.4999 9.97573C16.499 9.77462 16.3273 9.5538 16.0187 9.53346C15.6821 9.51127 15.3424 9.5 15 9.5Z" fill="black"/>
</svg>

<svg xmlns="http://www.w3.org/2000/svg" viewBox="0 0 20 20" fill="currentColor" aria-hidden="true" data-slot="icon">
  <path fill-rule="evenodd" d="M2.75 4a.75.75 0 0 1 .75.75v4.5h5v-4.5a.75.75 0 0 1 1.5 0v10.5a.75.75 0 0 1-1.5 0v-4.5h-5v4.5a.75.75 0 0 1-1.5 0V4.75A.75.75 0 0 1 2.75 4ZM15 9.5c-.73 0-1.448.051-2.15.15a.75.75 0 1 1-.209-1.485 16.886 16.886 0 0 1 3.476-.128c.985.065 1.878.837 1.883 1.932V10a6.75 6.75 0 0 1-.301 2A6.75 6.75 0 0 1 18 14v.031c-.005 1.095-.898 1.867-1.883 1.932a17.018 17.018 0 0 1-3.467-.127.75.75 0 0 1 .209-1.485 15.377 15.377 0 0 0 3.16.115c.308-.02.48-.24.48-.441L16.5 14c0-.431-.052-.85-.15-1.25h-2.6a.75.75 0 0 1 0-1.5h2.6c.098-.4.15-.818.15-1.25v-.024c-.001-.201-.173-.422-.481-.443A15.485 15.485 0 0 0 15 9.5Z" clip-rule="evenodd"/>
</svg>
